!!!!SEGMENT: 032-1-Sm-002.krn
!!!COM: [Chopin, Fryderyk]
!!!OTL: [Nocturne No. 2.]
!!!OPS: [Op. 32]
!!!PTL: [Deux Nocturnes]
!!!PPR: M. Schlesinger
!!!PPP: Paris
!!!NIFC-rismID: 1001032941
!!!NIFC-shelfmark: PL-Wbfc 3941/n
!!!OMD: Lento.
**kern	**kern	**dynam
*part1	*part1	*part1
*staff2	*staff1	*
*clefF4	*clefG2	*
*k[b-e-a-d-]	*k[b-e-a-d-]	*
*A-:	*A-:	*
*M4/4	*M4/4	*
*met(c)	*met(c)	*
=1-	=1-	=1-
*	*^	*
*	*	*^	*
*ped	*	*	*	*
2AA- 2E- 2A-:	(>2e- 2a- 2cc:	2ryy	2ryy	.
*Xped	*	*	*	*
.	.	.	.	.
*ped	*	*	*	*
2D- 2A-	4.a-	4f	2d-\	.
.	.	4f-X	.	.
*Xped	*	*	*	*
.	.	.	.	.
.	8b-	.	.	.
*	*v	*v	*v	*
=2	=2	=2
*ped	*	*
1A-;< 1E- 1AA-:	1cc; 1a- 1e- 1c):)	.
*Xped	*	*
=3||	=3||	=3||
*Xtuplet	*Xtuplet	*Xtuplet
*ped	*	*
!LO:TX:a:t=sempre piano e legato.	!	!
12AA-L	(>4cc	<
12c 12A-	.	.
*Xped	*	*
12E-J	.	.
*ped	*	*
12AA-L	4bn	.
12B 12A-	.	.
*Xped	*	*
12DnJ	.	.
*ped	*	*
12AA-L	4cc	.
12c 12A-	.	.
*Xped	*	*
12E-J	.	.
*ped	*	*
12AA-L	4ee-	.
12d-X 12G	.	.
12E-J	.	[
*Xped	*	*
.	.	.
=4	=4	=4
*ped	*	*
12AA-L	4cc)	>
12c 12A-	.	.
*Xped	*	*
12E-J	.	.
*ped	*	*
12EE-L	(>8.ccL	.
12d- 12G	.	.
*Xped	*	*
12E-J	.	.
.	16b-Jk	.
12AA-L	4a-)	.
12c 12A-	.	.
12E-J	.	.
12AA-L	4e-	.
12B-	.	]
12E-J	.	.
!!LO:LB:g=original
=5	=5	=5
*ped	*	*
12AA-L	8cL	<
12A-	.	.
.	8e-	.
12E-J	.	.
12AA-L	8a-	.
12c 12A-	.	.
.	8b-J	.
12E-J	.	.
12AA-L	8ccL/	.
12c 12A-	.	.
.	8a-	.
*Xped	*	*
12E-J	.	.
*ped	*	*
!	!LO:TX:a:t=P:brak oznaczenia cyfrowego trioli:problem	!
!	!LO:TX:a:t=P:obiegnik przekreślony i na dole:problem	!
12CL	12gg$<	.
12e-	12ff	.
12E-J	12ee-J	[
*Xped	*	*
.	.	.
=6	=6	=6
*^	*	*
*ped	*	*	*
4ryy	12EE-L	(>4b-	[
.	12e-	.	.
*Xped	*	*	*
.	12GJ	.	.
*ped	*	*	*
4D-X/	12D-XL\	28anLL	.
.	.	28b-	.
.	.	28cc-X	.
.	12f-X	.	.
.	.	28b-	.
.	.	28dd-	.
.	12A-J	.	.
*Xped	*	*	*
.	.	28cc-	.
.	.	28b-JJ)	.
4F-X/	12F-XL\	4b-	<
.	12d-	.	.
.	12A-J	.	.
4E-/	12E-L\	(>4bn	.
.	12d-	.	[
.	12GJ	.	.
*v	*v	*	*
=7	=7	=7
*ped	*	*
12AA-L	4cc	[
12c 12A-	.	.
*Xped	*	*
12E-J	.	.
*ped	*	*
12AA-L	4bn	.
12Bn 12A-	.	.
*Xped	*	*
12DnJ	.	.
*ped	*	*
12AA-L	4cc	.
12c 12A-	.	.
*Xped	*	*
12E-J	.	.
*ped	*	*
12AA-L	4ee-	.
12d- 12G	.	.
12E-J	.	.
*Xped	*	*
.	.	.
!!LO:LB:g=original
=8	=8	=8
*ped	*	*
12AA-L	4cc)	.
12c 12A-	.	.
*Xped	*	*
12E-J	.	.
*ped	*	*
12CL	(>8.ccL	>
12en 12G	.	.
*Xped	*	*
12cJ	.	.
.	16b-Jk	]
*ped	*	*
12FL	4a-\)	.
12f 12c	.	.
*Xped	*	*
12A-J	.	.
.	16qa-/LL	.
.	16qb-/JJ	.
*ped	*	*
12D-L	4b-TT	.
12f 12B-	.	.
[12GJ	.	.
*Xped	*	*
.	.	.
.	16qa-/LL	.
.	16qb-/JJ	.
=9	=9	=9
*ped	*	*
12GL] 12C	(>20ccLL	.
.	20dd-	.
12en 12B-	.	.
.	20cc	.
.	20bn	.
12cJ	.	.
*Xped	*	*
.	20ccJJ	.
.	8qcc/	.
*ped	*	*
12FL	>12aa-L)	.
12f 12A-	(12.gg	.
12cJ	.	.
*Xped	*	*
.	24ffJk	.
*ped	*	*
12D-L	12ffL	>
12f 12A-	12.ee-	.
12B-J	.	.
*Xped	*	*
.	24dd-Jk	.
*ped	*	*
12E-L	28dd-LL	.
.	28ee-	.
.	28dd-J	.
12e 12G	.	.
.	14cc)	.
12d-J	.	.
*Xped	*	*
.	28r	.
.	(28b-XJk	]
=10	=10	=10
*ped	*	*
12AA-L	4a-	]
12c 12A-	.	.
*Xped	*	*
12E-J	.	.
*ped	*	*
12AA-L	4f	.
12Bn 12A-	.	.
*Xped	*	*
12DnJ	.	.
*ped	*	*
12AA-L	4a-)	.
12c 12A-	.	.
*Xped	*	*
12E-J	.	.
*ped	*	*
12CL	(8.gL\	>
12e-	.	.
12A-J	.	.
*Xped	*	*
.	16a-Jk	]
!!LO:LB:g=original
=11	=11	=11
*^	*	*
4G/	12GL\	4b-	<
.	12e-	.	.
.	12B-J	.	.
4G-X/	12G-XL\	4cc	.
.	12e-	.	.
.	12B-J	.	.
4F/	12FL\	4cc	.
.	12e-	.	.
.	12AnJ	.	.
*ped	*	*	*
4ryy	12BB-L\	4dd-	.
.	12d-	.	.
.	12B-J	.	[
*Xped	*	*	*
.	.	.	.
=12	=12	=12	=12
*ped	*	*	*
4E-/	12E-L\	8dd-L	[
.	12g-X	.	.
.	.	24dd-L	.
*Xped	*	*	*
.	12B-J	24ee-	.
.	.	24dd-J	.
4G-X/	12G-XL\	8.cc	.
.	12e-	.	.
.	12B-J	.	.
.	.	16b-Jk	.
4F/	12FL\	4an\	.
.	12e-	.	.
.	12cJ	.	.
4ryy	12BB-L\	4b-	.
.	12d-	.	.
.	12B-J	.	.
=13	=13	=13	=13
4F-X/	12F-XL\	4b-	.
.	12d-	.	.
.	12A-J	.	.
*ped	*	*	*
4E-/	12E-L\	8.ccL	.
.	12d-	.	.
*Xped	*	*	*
.	12GJ	.	.
.	.	16b-Jk	.
*ped	*	*	*
4D-/	12D-L\	4ff	>
.	12e-	.	.
*Xped	*	*	*
.	12GJ	.	.
*ped	*	*	*
4C/	12CL\	4ee-	.
.	12e-	.	.
*Xped	*	*	*
.	12A-J	.	.
!!LO:LB:g=original
=14	=14	=14	=14
*ped	*	*	*
2ryy	12BB-L	4dd-	.
.	12e-	.	.
.	12GJ	.	.
*Xped	*	*	*
.	.	.	.
.	.	8qcc/	.
*ped	*	*	*
.	12AA-L	4cc	.
.	12e-	.	]
.	12A-J	.	.
.	.	8qcc/L	.
.	.	8qdd-/	.
.	.	8qcc/	.
.	.	8qbn/	.
.	.	8qcc/	.
.	.	8qbb-X/	.
.	.	8qaa-/	.
.	.	8qee-/	.
.	.	8qcc/J	.
*Xped	*	*	*
*ped	*	*	*
12ryy	(12EE-L<	4an^<\	.
6e-/	12e-	.	.
.	12F#XJ	.	.
*Xped	*	*	*
4ryy	12GL	8b-y)	.
.	12d-	.	.
.	.	16r	.
.	12E-J	.	.
.	.	(>16bn	.
*v	*v	*	*
=15	=15	=15
*ped	*	*
)12AA-L	4cc	.
12c 12A-	.	.
12E-J	.	.
*Xped	*	*
.	.	.
*ped	*	*
12AA-L	4bn	<
12Bn 12A-	.	.
12DnJ	.	.
*Xped	*	*
.	.	.
*ped	*	*
12AA-L	4cc	.
12c 12A-	.	.
12E-J	.	.
*Xped	*	*
.	.	.
*ped	*	*
12AA-L	4ee-	.
12d-X 12G	.	.
12E-J	.	[
*Xped	*	*
.	.	.
=16	=16	=16
*ped	*	*
12AA-L	4cc)	[
12c 12A-	.	.
12E-J	.	.
*Xped	*	*
.	.	.
*ped	*	*
12CL	(>8.ccL	.
12en 12G	.	.
12cJ	.	.
*Xped	*	*
.	.	.
.	16b-Jk)	.
*ped	*	*
12FL	4a-\	<
12f 12c	.	.
12A-J	.	.
*Xped	*	*
.	.	.
.	16qa-/LL	.
.	16qb-/JJ	.
*ped	*	*
12D-L	4b-TT	.
12f 12B-	.	.
*Xped	*	*
[12GJ	.	.
.	16qa-/LL	[
.	16qb-/JJ	.
!!LO:LB:g=original
=17	=17	=17
*ped	*	*
12GL] 12C	(>20ccLL	.
.	20dd-	.
12en 12B-	.	.
.	20cc	.
.	20bn	.
12cJ	.	.
*Xped	*	*
.	20ccJJ	.
.	8qcc/	>
*ped	*	*
12FL	12aa-L)	.
12f 12A-	(>12.gg	.
12cJ	.	.
*Xped	*	*
.	.	.
.	24ffJk	.
*ped	*	*
12D-L	12ffL	.
12f 12A-	12ee-	.
12B-J	12dd-J	.
*Xped	*	*
.	.	.
*ped	*	*
12E-L	28dd-LL	.
.	28ee-	.
.	28dd-J	.
12e-X 12G	.	.
.	14cc)	.
12d-J	.	.
.	28r	.
*Xped	*	*
.	(28b-XJk	]
=18	=18	=18
*ped	*	*
12AA-L	4a-\	]
12c 12A-	.	.
*Xped	*	*
12E-J	.	.
*ped	*	*
12AA-L	4f	.
12Bn 12A-	.	.
12DnJ	.	.
*Xped	*	*
.	.	.
*ped	*	*
12AA-L	4a-\)	.
12c 12A-	.	.
*Xped	*	*
12E-J	.	>
*ped	*	*
12CL	(8.gL\	.
12e-	.	]
12A-J	.	.
*Xped	*	*
.	16a-Jk	.
=19	=19	=19
*^	*	*
4G/	12GL\	4b-	<
.	12e-	.	.
.	12B-J	.	.
4G-X/	12G-XL\	4cc	.
.	12e-	.	.
.	12B-J	.	.
4F/	12FL\	4cc	.
.	12e-	.	.
.	12AnJ	.	.
*ped	*	*	*
4ryy	12BB-L	4dd-	[
.	12d-	.	.
.	12FJ	.	.
*Xped	*	*	*
.	.	.	.
!!LO:LB:g=original
=20	=20	=20	=20
*ped	*	*	*
4E-/	12E-L\	8dd-L	[
.	12g-X	.	.
.	.	24dd-L	.
.	12B-J	24ee-	.
*Xped	*	*	*
.	.	24dd-J	.
*ped	*	*	*
4G-X/	12G-XL\	8.cc	.
.	12e-	.	.
.	12B-J	.	.
*Xped	*	*	*
.	.	16b-Jk	.
*ped	*	*	*
4F/	12FL\	4an\	.
.	12e-	.	.
.	12cJ	.	.
*Xped	*	*	*
.	.	.	.
*ped	*	*	*
4ryy	12BB-L	4b-)	.
.	12d-	.	.
.	12B-J	.	.
*Xped	*	*	*
.	.	.	.
=21	=21	=21	=21
*	*^	*	*
*ped	*	*	*	*
4F-X/	4ryy	12F-XL\	(4b-	.
.	.	12d-	.	.
.	.	12A-J	.	.
*Xped	*	*	*	*
.	.	.	.	.
*ped	*	*	*	*
!	!	!LO:N:vis=3.	!	!
4ryy	2.E-/	12E-L\	8.ccL	.
.	.	<12d-	.	.
.	.	12GJ	.	.
*Xped	*	*	*	*
.	.	.	16b-Jk	.
*ped	*	*	*	*
4D-/	.	12D-L\	4ffn	>
.	.	12e-	.	.
*Xped	*	*	*	*
.	.	12GJ	.	.
*ped	*	*	*	*
4C/	.	12CL\	4ee-	.
.	.	12e-	.	.
.	.	(>12A-J	.	.
*Xped	*	*	*	*
.	.	.	.	.
*	*v	*v	*	*
=22	=22	=22	=22
*ped	*	*	*
2E-	12BB-L)	4dd-	.
.	12e-	.	]
*Xped	*	*	*
.	12GJ	.	.
.	.	8qcc/	.
*ped	*	*	*
.	12AA-L	4cc	.
!LO:TX:a:t=delicatiss.	!	!	!
.	12e-	.	.
.	>12A-J	.	.
*Xped	*	*	*
.	.	.	.
.	.	8qcc/L	.
.	.	8qdd-/	.
.	.	8qcc/	.
.	.	8qb/	.
.	.	8qcc/	.
.	.	8qbb-X/	.
.	.	8qaa-/	.
.	.	8qccc/	.
.	.	8qaa-/	.
.	.	8qee-/	.
.	.	8qcc/J	.
4ryy	12EE-L	4an	>
*ped	*	*	*
.	12e-	.	.
.	12F#XJ	.	.
*Xped	*	*	*
!	!	!LO:N:vis=4	!
4ryy	12GL	8b-y)	.
.	12d-	.	]
.	.	(16bn	.
.	12E-J	.	.
.	.	16r	.
*v	*v	*	*
!!LO:LB:g=original
=23	=23	=23
*ped	*	*
12AA-L)	4cc	<
12c 12A-	.	.
*Xped	*	*
12E-J	.	.
*ped	*	*
12AA-L	4bn	.
12Bn 12A-	.	.
*Xped	*	*
12DnJ	.	.
*ped	*	*
12AA-L	4cc	.
12c 12A-	.	.
12E-J	.	.
*Xped	*	*
.	.	.
*ped	*	*
12AA-L	4ee-	.
12d- 12G	.	.
12E-J	.	[
*Xped	*	*
.	.	.
=24	=24	=24
*ped	*	*
12AA-L	4cc	.
12c 12A-	.	.
12E-J	.	.
*Xped	*	*
.	.	.
*ped	*	*
12CL	8.ccL	>
12en 12G	.	.
12cJ	.	]
*Xped	*	*
.	.	.
.	16b-Jk)	.
*ped	*	*
12FL	(>4a-\	<
12f 12c	.	.
12A-J	.	.
*Xped	*	*
.	.	.
.	16qa-/LL	.
.	16qb-/JJ	.
*ped	*	*
12D-L	4b-TT	.
12f 12B-	.	.
[12GJ	.	[
*Xped	*	*
.	.	.
.	16qa-/LL	.
.	16qb-/JJ	.
=25	=25	=25
*ped	*	*
12GL] 12C	20ccLL	.
.	20dd-	.
12en 12B-	.	.
.	20cc	.
.	20bn	.
12cJ	.	.
*Xped	*	*
.	20ccJJ	.
.	8qcc/	>
*ped	*	*
12FL	12aa-L)	.
12f 12A-	12.gg	.
12cJ	.	.
*Xped	*	*
.	.	.
.	(24ffJk	.
*ped	*	*
12D-L	12ffL	.
12f 12A-	12ee-	.
12B-J	12dd-J	.
*Xped	*	*
.	.	.
.	16qcc/LL	.
.	16qee-/JJ	]
*ped	*	*
12E-L	12dd-L	.
12e-X 12G	12cc)	.
12d-J	24r	.
*Xped	*	*
.	(>24b-XJk	.
=26	=26	=26
*^	*	*
*ped	*	*	*
6ryy	(>12AA-L	4a-)\	.
.	12c 12A-	.	.
12Dn	12DnJ	.	.
*Xped	*	*	*
.	.	.	.
6F	12FL	4r	.
.	12c 12A-	.	.
12E-	12E-J	.	.
*ped	*	*	*
2ryy	12AA-L)	4r	.
.	(>12c 12A-	.	.
*Xped	*	*	*
.	12E-J)	.	.
*ped	*	*	*
!	!	!LO:TX:t=P:diminuendolike accent:problem	!
.	(>12GGL\	[4cc^<	.
.	12B- 12En	.	.
.	12CJ)	.	.
*Xped	*	*	*
*v	*v	*	*
!!LO:LB:g=original
=27||!	=27||!	=27||!
*M12/8	*M12/8	*
*	*	*
.	16qcc/LL	.
.	16qdd-/JJ	.
8FF'L	8ccL]\	.
8c 8A-	(>8bn 8f	.
8cJ 8A-	8ccJ 8f	.
8cL 8A-	8ffL) 8f	.
8c 8A-	(>8een' 8f	.
8cJ 8A-	8ee-X'J 8f	.
8BB-'L	8ddn'L 8f\	.
8d- 8G	8dd-X' 8f	.
8d-J 8G	8cc'J 8f	.
8d-L 8G	8b'L 8f\	.
8d- 8G	8cc' 8f	.
8d-J 8G	8dd-'J 8f	.
=28	=28	=28
.	16qg/LL	.
.	16qa-/JJ	.
*^	*	*
!LO:N:vis=2.	!	!	!
2.C/	8CL\	8gL) 8f\	.
.	8c 8B- 8G	(>8f#X	.
.	8cJ 8B- 8G	8gJ 8fn	.
.	8cL 8B- 8G\	8dd-'L 8en\	.
.	8c 8B- 8G	8cc' 8e	.
.	8cJ 8B- 8G	8g'J 8e	.
!	!	!	!LO:HP:b=2
4.F/	8FL\	8b-'L 8f\	>
.	8c 8A-	8a-' 8f	.
.	8cJ 8A-	8g'J 8f	.
4.ryy	8cL 8A-\ >8F	8a-'L 8f\	.
.	(8E-	8b-' 8f	]
.	8D-J)	8bn'J 8f	.
=29	=29	=29	=29
4.C/	8CL\	8ccL 8en\	.
.	8c 8B-) 8G	8dd-) 8e	.
.	8cJ 8B- 8G	(>8ccJ [8e	.
4F/	8FL\	8b-ML 8e]\	.
.	8c 8A-	8a-) 8f	.
8ryy	8D-J	(>8b-J 8f	.
4.C/	8CL\	8ccL 8e\	.
.	8c 8B- 8G	8dd-) 8e	.
.	8cJ 8B- 8G	(>8ccJ [8e	.
4F/	8FL\	8b-ML 8e]\	<
.	8c 8A-	8a-) 8f	.
8ryy	8dnJ 8A- 8F-X	(8b-J 8a-	[
*v	*v	*	*
!!LO:LB:g=original
=30	=30	=30
8e-L 8A- 8E-	8ccL 8a-\	.
>8f' 8A- 8E-	8dd-' 8a-	.
8e-'J 8A- 8E-	8cc'J 8a-	.
8e--'L 8A- 8E-X	8b-'ML 8f\	.
8d-' 8A- 8E-	8a-' 8f-X	.
8d-'J 8G 8E-	8b-'J [8e-	.
*ped	*	*
8AA-'L	8ccL 8e-]\	<
8c 8A-	8dd- 8e-)	.
*Xped	*	*
8cJ 8A-	(8ccJ [8e-	.
*ped	*	*
8GG'L	8b-ML 8e-]\	.
8c 8B- 8G	8a- 8en)	.
8cJ 8B- 8G	(>8b-J 8e	[
*Xped	*	*
.	.	.
=31	=31	=31
*ped	*	*
8FF'L	8ccL)\	.
8f 8c 8F	(8bn 8a-	<
8fJ 8c 8F	8ccJ 8a-	.
*Xped	*	*
.	.	.
8fL 8c 8F	8aa-L 8a-)\	[
8f 8c 8F	(8gg' 8a-	>
8fJ 8c 8F	8gg-X'J 8a-	.
*ped	*	*
8BB-'L	8ff'L 8gn\	.
8f 8d- 8B- 8G	8een' 8g	.
8fJ 8d- 8B- 8G	8ee-X'J 8g	.
8fL 8d-X 8B- 8G	8ddnL 8g\	.
8f 8d- 8B- 8G	8dd-X' 8g	.
8fJ 8d- 8B- 8G	8cc'J 8g	]
*Xped	*	*
.	.	.
=32	=32	=32
.	(<16qb-/LL	.
.	16qcc/JJ	.
*^	*	*
*ped	*	*	*
2.ryy	8C'L	8b-L 8g)\	.
.	8f 8B- 8G	8an 8g	.
.	8fJ 8B- 8G	8b-J 8g	.
*Xped	*	*	*
.	.	.	.
.	8B-L 8G	8dd-L 8en\	.
.	8B- 8G	8cc 8e	.
.	8B-J 8G	8gJ 8e	.
4F	8FL	8b-L 8f\	.
.	8c 8A-	8a-X 8f	.
2ryy	8cJ 8A-	8gJ 8f	.
!	!LO:S:s=1:note:problem:note-level slur	!	!
.	8cL (8A- >8F	8a-L 8\	<
.	8E-	8b- 8f	.
.	8D-J)	8bnJ 8f	[
!!LO:LB:g=original
=33	=33	=33	=33
8CL\	4.C/	8ccL 8en\	.
8c 8B- 8G	.	8dd- 8e)	.
8cJ 8B- 8G	.	(>8ccJ [8e	.
8FL\	4F/	8b-ML 8e]\	.
8c 8A-	.	8a-) 8f	.
8D-J	8ryy	((<8b-J 8f	.
8CL\	4.C/	8ccL 8e\)	.
8c 8B- 8G	.	8dd-) 8e	.
8cJ 8B- 8G	.	(>8ccJ [8e	.
8FL\	4F/	8b-ML 8e]\	<
8c 8A-	.	8a-) 8f	.
8dnJ 8A- 8F-X	8ryy	(8b-J 8a-	[
*v	*v	*	*
=34	=34	=34
>8e-L 8A- 8E-	8ccL 8a-\	.
(8f' 8A- 8E-	8dd-' 8a-	.
8e-'J 8A- 8E-	8cc'J 8a-	.
8e--'L 8A- 8E-	8b-ML 8f)\	.
8d-' 8A- 8E-	8a- 8f-X	.
8d-'J) 8G 8E-	(>8b-J [8e-	.
*ped	*	*
8AA-'L	8ccL 8e-]\	<
8e-- 8A-	8dd-) 8g-X	.
*Xped	*	*
8e--J 8A-	(>8ccJ [8g-	.
*ped	*	*
8AA-'L	8b-ML 8g-]\	.
8d- 8A-	8a-) 8g-	.
*Xped	*	*
!	!LO:TX:a:t=P:ligatura nie wyświetla się:problem	!
8d-J 8A-	(8b-J [8g-	[
=35	=35	=35
*	*^	*
*ped	*	*	*
8AA-'L	2.ryy	(8ccL) 8g]	<
8c 8A-	.	8dd- 8g	.
*Xped	*	*	*
8cJ 8A-	.	8ee-J 8g	.
*ped	*	*	*
8D-'L	.	8ffL 8f\	.
8d- 8A-	.	8cc 8f	[
*Xped	*	*	*
8d-J 8A-	.	8dd-J) 8f	.
*ped	*	*	*
!	!	!LO:TX:a:t=P:przesunięcie nut 4bb-- i 4bb-:problem	!
8C'L	4bb--	8b--^<L 8bb--	.
8g- 8e-	.	8ee-	.
*Xped	*	*	*
8g-J 8A-	8ryy	8aa-J) 8a-	.
*ped	*	*	*
8D-'L	4bb-X	(>8b-^<L 8bb-	.
8f 8d-	.	8dd-	.
8fJ 8A-	8ryy	8aa-J 8a-)	.
*Xped	*	*	*
.	.	.	.
!!LO:LB:g=original
=36	=36	=36	=36
*ped	*	*	*
8BB-'L	2.ryy	(>8ddnL 8a-	<
8f 8B-	.	8ee- 8a-	.
8fJ 8B-	.	8ffJ 8a-	.
*Xped	*	*	*
.	.	.	.
*ped	*	*	*
8E-'L	.	8gg-XL 8g-X	.
8e- 8B-	.	8dd 8g-	.
8e-J 8B-	.	8ee-J) 8g-	[
*Xped	*	*	*
.	.	.	.
*ped	*	*	*
!	!	!LO:TX:b:t=P:diminuendolike accents:problem	!
8Dn'L	4ccc-	(>8cc-X^<L 8ccc-	.
8a- 8f	.	8ff	.
*Xped	*	*	*
8a-J 8B-	8ryy	8bb-J) 8b-	.
*ped	*	*	*
8E-'L	4ccc-	(>8cc-^<L 8ccc-	.
8g 8e-	.	8ee-	.
8gJ 8B-	8ryy	8bb-J) 8b-	.
*Xped	*	*	*
=37	=37	=37	=37
*ped	*	*	*
8C'L	(>4bb--	8b--^<L 8bb--X	.
8g-X 8e-	.	8ee-	.
8g-J 8A-	8ryy	8aa-J 8a-)	.
*Xped	*	*	*
.	.	.	.
*ped	*	*	*
8D-'L	(4ggn	8gn^<L 8ggn	.
8f 8d-	.	8dd-	.
8fJ 8A-	8ryy	8aa-J 8a-)	.
*Xped	*	*	*
.	.	.	.
*ped	*	*	*
8BB-'L	(>4aa--	8a--^<L 8aa--X	.
8f-X 8d-	.	8dd-	.
*Xped	*	*	*
8f-J 8G-X	8ryy	8gg-XJ 8g-X)	.
*ped	*	*	*
8C-X'L	(4ff	8f^<L 8ff	.
8e- 8c-X	.	8cc-X	.
8e-J 8G-	8ryy	8gg-J 8g-)	.
*Xped	*	*	*
.	.	.	.
=38	=38	=38	=38
*ped	*	*	*
8AA-'L	(>4ff	8f^<L 8ff	.
8e-- 8c-X	.	8cc-X	.
*Xped	*	*	*
8e--J 8F-X	8ryy	8ff-XJ 8f-X)	.
*ped	*	*	*
8GGn'L	(4ff-	8f-^<L 8ff-	.
8d- 8B-	.	8b-	.
*Xped	*	*	*
8d-J 8E-	8ryy	8ee-J 8e-)	.
*ped	*	*	*
8FF#X'L	(>4ee-	8e-^<L 8ee-	.
8cn 8A-	.	8an	.
*Xped	*	*	*
8cJ 8Dn	8ryy	8ddnJ 8dn)	.
*ped	*	*	*
8EE#X'L	(4dd	8d^<L 8dd	.
8Bn 8G#X	.	8g#X	.
*Xped	*	*	*
8BJ 8C#X	8ryy	8cc#XJ 8c#X)	.
*	*v	*v	*
!!LO:LB:g=original
=39||!	=39||!	=39||!
*k[f#c#g#]	*k[f#c#g#]	*
!LO:TX:t=P:mixed beam:problem	!	!
8FF#'<L/ 8FFF#/	8cc#mL\	fz
8c#\ 8A\ 8F#\	(>8b#X 8f#	<
8c#J 8A 8F#	8cc#J 8f#	[
8c#L 8A 8F#	8ff#L) 8f#\	.
8c# 8A 8F#	(>8ee#X' 8f#	.
8c#J 8A 8F#	8een'J 8f#	.
*ped	*	*
8BB'L	8dd#X'L 8f#\	.
8d 8G# 8F#	8ddn' 8f#	.
8dJ 8G# 8F#	8cc#'J 8f#	.
8dL 8G# 8F#	8bn'L 8f#\	.
8d 8G# 8F#	8cc#' 8f#	.
8dJ 8G# 8F#	8dd'J) 8f#	.
*Xped	*	*
.	.	.
=40	=40	=40
*^	*	*
!	!LO:N:vis=2.	!	!
2.C#/	8C#L\	(8g#L 8f#	.
.	8c# 8B	8f##X	.
.	8c#J 8B	8g#J 8f	.
.	8c#L 8B 8G#\	8ddL 8e#X\	.
.	8c# 8B 8G#	8cc# 8e#	.
.	8c#J 8B 8G#	8g#J 8e#	.
!	!	!	!LO:HP:b=2
4.F#/	8F#L\	8bL 8f\	>
.	8c# 8A	8a 8f	.
.	8c#J 8A	8g#J 8f	.
4.ryy	8c#L 8A >8F#\	8a'L 8f\	.
.	(8E	8b 8f	.
.	8DnJ	8b#XJ 8f	]
=41	=41	=41	=41
4.C#)/	8C#L\	8cc#L 8e#X\	.
.	8c# 8B) 8G#	8dd 8e#	.
.	8c#J 8B 8G#	8cc#J [8e#	.
4.F#/	8F#L\	8bML 8e#]\	.
.	8c# 8A	8a 8f#	.
.	8DnJ	8bJ 8f#	.
4.C#/	8C#L\	8cc#L 8e#\	.
.	8c# 8B 8G#	8dd) 8e#	.
.	8c#J 8B 8G#	8cc#J [8e#	.
4F#/	8F#L\	8bML 8e#]\	<
.	8c# 8A	8a 8f#	.
8ryy	8d#XJ 8A 8Fn	(8bJ 8a	[
*v	*v	*	*
!!LO:LB:g=original
=42	=42	=42
8eL 8A 8E	8cc#L 8a\	.
(>8f#' 8A 8E	8dd' 8a	.
8e'J 8A 8E	8cc#'J 8a	.
8d#X'L 8A 8E	8bML 8f#\	.
8dn' 8A 8E	8a' 8fn	.
8d'J) 8G# 8E	8b'J [8e	.
*ped	*	*
8AA'L	8cc#L 8e]\	.
8c# 8A	8dd) 8e	.
8c#J 8A	(8cc#J) [8e	.
*Xped	*	*
.	.	.
*ped	*	*
8GG#'L	8bL 8e]\	.
8c# 8B 8G#	8a) 8e#X	.
8c#J 8B 8G#	(>8bJ 8e#	.
*Xped	*	*
.	.	.
=43	=43	=43
*ped	*	*
8FF#'L	8cc#L)\	ff
8f# 8c# 8F#	(8b#X 8a	<
8f#J 8c# 8F#	8cc#J 8a	.
8f#L 8c# 8F#	8aaL) 8a\)	[
8f# 8c# 8F#	(>8gg#' 8a	.
8f#J 8c# 8F#	8ggn'J 8a	.
*Xped	*	*
.	.	.
*ped	*	*
8BB'L	8ff#'L 8g#X\	.
8f# 8d 8B 8G#	8ffn' 8g#	.
8f#J 8d 8B 8G#	8ee'J 8g#	.
8f#L 8d 8B 8G#	8dd#X'L 8g#X\	.
8f# 8d 8B 8G#	8ddn' 8g#	.
8f#J 8d 8B 8G#	(8cc#'J) 8g#	.
*Xped	*	*
.	.	.
=44	=44	=44
*^	*	*
*ped	*	*	*
!	!LO:TX:t=P:mixed beam:problem	!	!
4.ryy	8CC#/L	(>8bML) 8g#\	.
.	8d\ 8B\ 8G#\	8a#X 8g#	.
.	8dJ\ 8B\ 8G#\	8bJ 8f#	.
4C#	8C#L	8ddL 8e#X\	.
.	8c# 8B 8G#	8cc# 8e#	.
8ryy	8c#J 8B 8G#	8g#J 8e#	.
!	!	!	!LO:HP:b=2
4.F#	8F#L	8bL 8f#\	>
.	8c# 8A	8a# 8f#	.
.	8c#J (8A	8g#J 8f#	.
4.ryy	8c#L 8A 8F#)	8anyL 8f#\	.
.	8E	8b 8f#	.
.	8DJ	8b#XJ 8f#	]
!!LO:LB:g=original
=45	=45	=45	=45
4C#/	8C#L\	8cc#L 8e#X\	.
.	8c# 8B 8G#)	8dd 8e#	.
8ryy	8c#J 8B 8G#	8cc#J [8e#	.
4F#/	8F#L\	8bML 8e#]\	.
.	8c# 8A	8a) 8f#	.
8ryy	8DnJ	(>8bJ 8f#	.
4.C#/	8C#L\	8cc#L 8e#\	.
.	8c# 8B 8G#	8dd) 8e#	.
.	8c#J 8B 8G#	(>8cc#J 8e#	.
4F#/	8F#L\	8bML 8e#]\	<
.	8c# 8A	8a) 8f#	.
8ryy	8d#XJ 8A 8Fn	(8bJ 8a	[
*v	*v	*	*
=46	=46	=46
(8eL 8A 8E	8cc#L 8a\	.
8f# 8A 8E	8dd' 8a	.
8eJ 8A 8E	8cc#'J 8a	.
8d#XL 8A 8E	8bML 8f#\	.
8dn 8A 8E	8a' 8fn	.
8dJ) 8G# 8E	8b'J [8e	.
*ped	*	*
8AA'L	8cc#L 8e]\	.
8e 8A	8dd) 8gn	.
8eJ 8A	(8cc#J [8g	.
*Xped	*	*
.	.	.
*ped	*	*
8AA'L	8bML 8g]\	.
8d 8A	8a 8g	.
8dJ 8A	8bJ [8g	.
*Xped	*	*
.	.	.
=47	=47	=47
*	*	*^
*ped	*	*	*
8AA'L	8cc#L 8gnX]	<	.
!	!LO:TX:a:t=cres_cen_do.:problem:dynamics with extention lines	!	!
!	!	!	!LO:HP:a:t=cres_cen_do.
!	!	!	!LO:HP:a
8e 8A	8dd 8g	.	<
8eJ 8A	8eeJ 8g	.	.
*Xped	*	*	*
*ped	*	*	*
8D'L	8ff#L 8f#\	.	.
8d 8A	8cc# 8f#	.	.
8dJ 8A	8ddJ) 8f#	[	.
*Xped	*	*	*
*ped	*	*	*
8C#'L	(8b-XL 8bb-X	>	.
8g# 8e	8ee	]	.
*Xped	*	*	*
8g#J 8A	8aaJ) 8a	.	.
*ped	*	*	*
8D'L	(8bnL 8bbn	>	.
8f# 8d	8dd	]	.
*Xped	*	*	*
8f#J 8A	8aaJ 8a	.	.
!!LO:LB:g=original
=48	=48	=48	=48
*	*^	*	*
*ped	*	*	*	*
8BB'L	2.ryy	8dd#XL 8a	<	.
8f# 8B	.	8ee 8a	.	.
8f#J 8B	.	8ff#J 8a	.	.
*Xped	*	*	*	*
.	.	.	.	.
*ped	*	*	*	*
8E'L	.	8ggnL 8gn	.	.
8e 8B	.	8dd#X 8g	.	.
8eJ 8B	.	8eeJ) 8g	.	.
*Xped	*	*	*	*
.	.	.	.	.
*ped	*	*	*	*
8D#X'L	(>4cccn	8ccnL 8cccn	[>	.
8a 8f#	.	8ff#	.	.
8aJ 8B	8ryy	8bbJ) 8b	]	.
*Xped	*	*	*	*
.	.	.	.	.
*ped	*	*	*	*
8E'L	(4ccc	8ccL 8ccc	>	.
8g# 8e	.	8ee	.	.
8g#J 8B	8ryy	8bbJ) 8b	]	.
*Xped	*	*	*	*
.	.	.	.	.
=49	=49	=49	=49	=49
*ped	*	*	*	*
8C#'L	(>4bb-X	8b-XL 8bb-X	>	.
8g# 8e	.	8ee	]	.
*Xped	*	*	*	*
8g#J 8A	8ryy	8aaJ) 8a	.	.
*ped	*	*	*	*
8D'L	(4gg#	8g#L 8gg#	>	.
8f# 8d	.	8dd	]	.
*Xped	*	*	*	*
8f#J 8A	8ryy	8aaJ) 8a	.	.
*ped	*	*	*	*
8Cn'L	(4bb--	8b--L 8bb--	>	.
8g-X 8e-X	.	8ee-X	]	.
*Xped	*	*	*	*
8g-J 8A-X	8ryy	8aa-XJ) 8a-X	.	.
*ped	*	*	*	*
8D-X'L	(4ggn	8gnL 8ggn	>	.
8fn 8d-X	.	8dd-X	]	.
8fJ 8A-	8ryy	8aa-J) 8a-	.	.
*Xped	*	*	*	*
.	.	.	.	.
=50	=50	=50	=50	=50
*ped	*	*	*	*
8BB-X'L	(>4aa--	8a--L 2aa--	>	.
8f-X 8d-X	.	8dd-X	.	.
*Xped	*	*	*	*
8f-J 8G-X	8ryy	8gg-XJ) 8g-X	]	.
*ped	*	*	*	*
8AAn'L	(4gg-	8g-L 8gg-	>	.
8e-X 8cn	.	8ccn	.	.
*Xped	*	*	*	*
8e-J 8Fn	8ryy	8ffnJ) 8fn	]	.
*ped	*	*	*	*
8AA-X'L	(4ff	8fL 8ff	>	.
8d- 8Bn	.	8bn	.	.
*Xped	*	*	*	*
8d-J 8En	8ryy	8eenJ) 8en	]	.
*ped	*	*	*	*
8GGn'L	(4ff-X	8f-XL 8ff-X	>	.
8d-X 8B-X	.	8b-X	.	.
*Xped	*	*	*	*
8d-J 8E-X	8ryy	8ee-XJ) 8e-X	]	[
*	*v	*v	*	*
*	*	*v	*v
!!LO:LB:g=original
=51	=51	=51
*k[b-e-a-d-]	*k[b-e-a-d-]	*
*M4/4	*M4/4	*
*met(c)	*met(c)	*
*ped	*	*
!	!LO:TX:a:t=Appassionato.	!
!	!	!LO:DY:rj
12AA-L	(>4cc	ff
12c 12A-	.	.
12E-J	.	.
*Xped	*	*
.	.	.
*ped	*	*
12AA-L	4bn	.
12Bn 12A-	.	.
*Xped	*	*
12DnJ	.	.
*ped	*	*
12AA-L	4cc	.
12c 12A-	.	.
*Xped	*	*
12E-J	.	.
*ped	*	*
12AA-L	4ee-	.
12d- 12G	.	.
12E-J	.	.
*Xped	*	*
=52	=52	=52
*ped	*	*
12AA-L	4cc)	.
12c 12A-	.	.
12E-J	.	.
*ped	*	*
12EE-L	(>8.ccL	.
12d- 12G	.	.
*Xped	*	*
12E-J	.	.
.	16b-Jk	.
*ped	*	*
12AA-L	4a-\	.
12c 12A-	.	.
12E-J	.	.
*Xped	*	*
.	.	.
*ped	*	*
12AA-L	(4e-)	.
12B-	.	.
12E-J	.	.
*Xped	*	*
.	.	.
=53	=53	=53
*ped	*	*
12AA-L	8cL	.
12A-	.	.
.	8e-	.
12E-J	.	.
12AA-L	8a-	.
12c 12A-	.	.
.	8b-J	.
12E-J	.	.
12AA-L	8ccL/	.
12c 12A-	.	.
.	8a-$<	.
12E-J	.	.
*Xped	*	*
!	!LO:TX:a:t=P:brak oznaczenia trioli:problem	!
!	!LO:TX:t=P:obiegnik przekreślony i na dole:problem	!
12CL	12gg	.
12e-	12ff	.
12E-J	12ee-J)	.
=54	=54	=54
*^	*	*
*ped	*	*	*
4ryy	12EE-L	(>4b-	.
.	12e-	.	.
.	12GJ	.	.
*Xped	*	*	*
.	.	.	.
*ped	*	*	*
4D-X/	12D-XL\	28anLL	.
.	.	28b-	.
.	.	28cc-X	.
.	12f-X	.	.
.	.	28b-	.
.	.	28dd-	.
.	12A-J	.	.
.	.	28cc-	.
*Xped	*	*	*
.	.	.	.
.	.	28b-JJ	.
4F-X/	12F-XL\	4b-)	<
.	12d-	.	.
.	12A-J	.	.
4E-/	12E-L\	(>4bn	.
.	12d-	.	[
.	12GJ	.	.
*v	*v	*	*
!!LO:LB:g=original
=55	=55	=55
*ped	*	*
12AA-L	4cc	.
12cn 12A-	.	.
12E-J	.	.
*Xped	*	*
.	.	.
*ped	*	*
12AA-L	4bn	.
12Bn 12A-	.	.
12DnJ	.	.
*Xped	*	*
.	.	.
*ped	*	*
12AA-L	4cc	.
12c 12A-	.	.
12E-J	.	.
*Xped	*	*
.	.	.
*ped	*	*
12AA-L	4ee-	.
12d- 12G	.	.
12E-J	.	.
*Xped	*	*
.	.	.
=56	=56	=56
*ped	*	*
12AA-L	4cc)	.
12c 12A-	.	.
*Xped	*	*
12E-J	.	.
*ped	*	*
12CL	(>8.ccL	>
12en 12G	.	.
12cJ	.	]
*Xped	*	*
.	.	.
.	16b-Jk	.
*ped	*	*
12FL	4a-)	.
12f 12c	.	.
12A-J	.	.
*Xped	*	*
.	.	.
.	16qa-/LL	.
.	16qb-/JJ	.
*ped	*	*
12D-L	4b-TT	.
12f 12B-	.	.
[12GJ	.	.
*Xped	*	*
.	16qa-/LL	.
.	16qb-/JJ	.
=57	=57	=57
*ped	*	*
12GL] 12C	(20ccLL	<
.	20dd-	.
12e- 12B-	.	.
.	20cc	.
.	20bn	.
12cJ	.	.
.	20ccJJ	.
*Xped	*	*
.	.	.
.	8qcc/	[
*ped	*	*
12FL	12aa-L)	.
12f 12A-	(>12.gg	.
12cJ	.	.
*Xped	*	*
.	24ffJk	.
*ped	*	*
12D-L	12ffL	>
12f 12A-	12.ee-	.
12B-J	.	.
*Xped	*	*
.	24dd-Jk	.
*ped	*	*
12E-L	28dd-LL	.
.	28ee-	.
.	28dd-J	.
12e- 12G	.	.
.	14cc)	.
12d-J	.	.
*Xped	*	*
.	28r	.
.	(>28bJk	]
!!LO:LB:g=original
=58	=58	=58
*ped	*	*
12AA-L	4a-	.
12c 12A-	.	.
*Xped	*	*
12E-J	.	.
*ped	*	*
12AA-L	4f	.
12Bn 12A-	.	.
*Xped	*	*
12DnJ	.	.
*ped	*	*
12AA-L	4a-)	.
12c 12A-	.	.
*Xped	*	*
12E-J	.	.
*ped	*	*
12CL	(8.gL\	.
12e-	.	.
12A-J	.	.
.	16a-Jk	.
*Xped	*	*
.	.	.
=59	=59	=59
*^	*	*
4G/	12GL\	4b-	<
.	12e-	.	.
.	12B-J	.	.
4G-X/	12G-XL\	4cc	.
.	12e-	.	.
.	12B-J	.	.
4F/	12FL\	4cc	.
.	12e-	.	.
.	12AnJ	.	.
*ped	*	*	*
4ryy	12BB-L\	4dd-	.
.	12d-	.	.
.	12FJ	.	[
*Xped	*	*	*
.	.	.	.
=60	=60	=60	=60
*ped	*	*	*
12E-L\	4E-/	8dd-L	.
12g	.	.	.
.	.	24dd-L	.
12B-J	.	24ee-	.
*Xped	*	*	*
.	.	24dd-J	.
12G-XL\	4G-X/	8.cc	.
12e-	.	.	.
12B-J	.	.	.
.	.	16b-Jk	.
12FL\	4F/	4an\	.
12e-	.	.	.
12cJ	.	.	.
12BB-L\	4ryy	4b-	.
12d-	.	.	.
12B-J	.	.	.
!!LO:LB:g=original
=61	=61	=61	=61
4F-X/	12F-XL\	4b-	.
.	12d-	.	.
.	12A-J	.	.
*ped	*	*	*
4E-/	12E-L\	8.ccL	.
.	12d-	.	.
.	12GJ	.	.
*Xped	*	*	*
.	.	.	.
.	.	16b-Jk	.
*ped	*	*	*
4D-/	12D-L\	4ff	>
.	12e-	.	.
.	12GJ	.	.
*Xped	*	*	*
.	.	.	.
*ped	*	*	*
4C/	12CL\	4ee-	.
.	12e-	.	.
.	12A-J	.	.
*Xped	*	*	*
.	.	.	.
=62	=62	=62	=62
*ped	*	*	*
2ryy	12BB-L	4dd-	.
.	12e-	.	.
.	12GJ	.	.
*Xped	*	*	*
.	.	.	.
.	.	8qcc/	.
*ped	*	*	*
.	12AA-L	4cc	]
!LO:TX:a:t=delicatiss.	!	!	!
.	12e-	.	.
.	12A-J	.	.
*Xped	*	*	*
.	.	.	.
.	.	8qcc/L	.
.	.	8qdd-/	.
.	.	8qcc/	.
.	.	8qbn/	.
.	.	8qcc/	.
.	.	8qbb-X/	.
.	.	8qaa-/	.
.	.	8qee-/	.
.	.	8qcc/J	.
*ped	*	*	*
12ryy	12EE-L	4an^<\	.
6ryy	12e-	.	.
.	12F#XJ	.	.
*Xped	*	*	*
.	.	.	.
4ryy	12GL	8bnX)	.
.	12d-	.	.
.	.	16r	.
.	12E-J	.	.
.	.	(16bn	.
*v	*v	*	*
=63	=63	=63
*ped	*	*
12AA-L	4cc	.
12c 12A-	.	.
12E-J	.	.
*Xped	*	*
.	.	.
*ped	*	*
12AA-L	4bn	<
12Bn 12A-	.	.
12DnJ	.	.
*Xped	*	*
.	.	.
*ped	*	*
12AA-L	4cc	.
12c 12A-	.	.
12E-J	.	.
*Xped	*	*
*ped	*	*
12AA-L	4ee-	.
12d- 12G	.	[
12E-J	.	.
*Xped	*	*
.	.	.
!!LO:LB:g=original
=64	=64	=64
*ped	*	*
12AA-L	4cc)	.
12c 12A-	.	.
*Xped	*	*
12E-J	.	.
*ped	*	*
12CL	(>8.ccL	.
12en 12G	.	.
12cJ	.	.
*Xped	*	*
.	.	.
.	16b-Jk)	<
*ped	*	*
12FL	4a-\	.
12f 12c	.	.
12A-J	.	.
*Xped	*	*
.	.	.
.	16qa-/LL	.
.	16qb-/JJ	.
*ped	*	*
12D-L	4b-TT	.
12f 12B-	.	[
[12GJ	.	.
*Xped	*	*
.	.	.
.	16qa-/LL	.
.	16qb-/JJ	.
=65	=65	=65
*ped	*	*
12GL] 12C	(>20ccLL	.
.	20dd-	.
12en 12B-	.	.
.	20cc	.
.	20bn	.
12cJ	.	.
*Xped	*	*
.	20ccJJ	.
.	8qcc/	.
*ped	*	*
12FL	12aa-L)	.
12f 12A-	(12.gg	.
12cJ	.	.
*Xped	*	*
.	24ffJk	.
*ped	*	*
12D-L	12ffL	.
12f 12A-	12ee-	.
12B-J	12dd-J	.
*Xped	*	*
.	.	.
*ped	*	*
12E-L	28dd-LL	.
.	28ee-	.
.	28dd-J	.
12e-X 12G	.	.
.	14cc)	.
12d-J	.	.
.	28r	.
*Xped	*	*
.	.	.
.	(28bJk	.
=66	=66	=66
*ped	*	*
12AA-L	4a-\	.
12c 12A-	.	.
12E-J	.	.
*Xped	*	*
.	.	.
*ped	*	*
12AA-L	4f	.
12Bn 12A-	.	.
*Xped	*	*
12DnJ	.	.
*ped	*	*
12AA-L	4a-)\	.
12c 12A-	.	.
*Xped	*	*
12E-J	.	.
*ped	*	*
12CL	(8.gL\	.
12e-	.	.
12A-J	.	.
*Xped	*	*
.	.	.
.	16a-Jk	.
!!LO:LB:g=original
=67	=67	=67
*^	*	*
4G/	12GL\	4b-	<
.	12e-	.	.
.	12B-J	.	.
4G-X/	12G-XL\	4cc	.
.	12e-	.	.
.	12B-J	.	.
4F/	12FL\	4cc	.
.	12e-	.	[
.	12AnJ	.	.
4ryy	12BB-L\	4dd-	.
*ped	*	*	*
.	12d-	.	.
.	12FJ	.	.
*Xped	*	*	*
=68	=68	=68	=68
*ped	*	*	*
4E-/	12E-L\	8dd-L	.
.	12g-X	.	.
.	.	24dd-L	.
.	12B-J	24ee-	.
*Xped	*	*	*
.	.	24dd-J	.
*ped	*	*	*
4G-X/	12G-XL\	8.cc	.
.	12e-	.	.
.	12B-J	.	.
*Xped	*	*	*
.	.	16b-Jk	.
*ped	*	*	*
4F/	12FL\	4an\	.
.	12e-	.	.
.	12cJ	.	.
*Xped	*	*	*
.	.	.	.
*ped	*	*	*
4ryy	12BB-L	4b-)	.
.	12d-	.	.
.	12B-J	.	.
*Xped	*	*	*
.	.	.	.
=69	=69	=69	=69
*	*^	*	*
*ped	*	*	*	*
4F-X/	4ryy	12F-XL\	(4b-	.
.	.	12d-	.	.
.	.	12A-J	.	.
*Xped	*	*	*	*
.	.	.	.	.
*ped	*	*	*	*
!	!	!LO:N:vis=3.	!	!
4ryy	2.E-/	12E-L\	8.ccL	.
.	.	<12d-	.	.
.	.	12GJ	.	.
*Xped	*	*	*	*
.	.	.	16b-Jk	.
*ped	*	*	*	*
4D-/	.	12D-L\	4ffn	>
.	.	12e-	.	.
*Xped	*	*	*	*
.	.	12GJ	.	.
*ped	*	*	*	*
4C/	.	12CL\	4ee-	.
.	.	12e-	.	.
.	.	(>12A-J	.	.
*Xped	*	*	*	*
.	.	.	.	.
*	*v	*v	*	*
!!LO:LB:g=original
=70	=70	=70	=70
*ped	*	*	*
2E-	12BB-L	4dd-	.
.	12e-	.	.
*Xped	*	*	*
.	12GJ	.	]
.	.	8qcc/	.
*ped	*	*	*
.	12AA-L	4cc	.
!LO:TX:a:t=delicatiss.	!	!	!
.	12e-	.	.
.	12A-J	.	.
.	.	8qcc/L	.
.	.	8qdd-/	.
.	.	8qcc/	.
.	.	8qbn/	.
.	.	8qcc/	.
.	.	8qbb-X/	.
.	.	8qaa-/	.
.	.	8qccc/	.
.	.	8qaa-/	.
.	.	8qee-/	.
.	.	8qcc/J	.
*ped	*	*	*
12ryy	12EE-L	4an^<\	.
6ryy	12e-	.	.
.	12F#XJ	.	.
*Xped	*	*	*
4ryy	12GL	8bny)	.
.	12d-	.	.
.	.	16r	.
.	12E-J	.	.
.	.	16bn	.
*v	*v	*	*
=71	=71	=71
*ped	*	*
!LO:TX:a:t=leggieris.	!	!
12AA-L	(>20ccLL	.
.	20dd-	.
12c 12A-	.	.
.	20bn	.
.	20dd-	.
12E-J	.	.
*Xped	*	*
.	20ccJJ	.
*ped	*	*
12AA-L	20bLL	.
.	20cc	.
12Bn 12A-X	.	.
.	20a#X	.
.	20cc	.
12DnJ	.	.
*Xped	*	*
.	20bJJ	.
*ped	*	*
12AA-L	20ccLL	.
.	20dd-	.
12c 12A-	.	.
.	20b	.
.	20dd-	.
12E-J	.	.
*Xped	*	*
.	20ccJJ	.
*ped	*	*
12AA-L	20ee-LL	.
.	20ff	.
12d-X 12G	.	.
.	20ddn	.
.	20ff	.
12E-J	.	.
*Xped	*	*
.	20ee-JJ	.
=72	=72	=72
*ped	*	*
12AA-L	20ccLL	.
.	20dd-	.
12c 12A-	.	.
.	20bn	.
.	20dd-	.
12E-J	.	.
*Xped	*	*
.	20ccJJ	.
*ped	*	*
12CL	20b-XLL	.
.	20cc	.
12en 12G	.	.
.	20an	.
.	20cc	.
12cJ	.	.
*Xped	*	*
.	20b-JJ	.
!	!	!LO:DY:a
.	16qg/LL	<
.	16qa/JJ	.
*ped	*	*
!	!LO:TX:a:t=P:tryl z falą:problem	!
12FL	4a\tt	.
12f 12c	.	.
*Xped	*	*
12A-J	.	.
.	16qg/LL	.
.	16qa-y/JJ	.
.	16qan/LL	.
.	16qb-/JJ	.
*ped	*	*
12D-L	4bnytt	.
12f 12B-	.	.
!LO:TX:t=P:brak rozpoczęcia ligatury przy 12G:problem	!	!
[12GJ	.	[
*Xped	*	*
.	.	.
.	16qa/LL	.
.	16qb/JJ	.
!!LO:LB:g=original
=73	=73	=73
*ped	*	*
12GL] 12C	36bnLL	.
.	36cc	.
.	36dd-	.
12en 12B-X	36cc	.
.	36b	.
.	36cc	.
12cJ	36ee-X	.
.	36dd-	.
*Xped	*	*
.	36ccJJ	.
.	8qcc/	.
*ped	*	*
12FL	12aa-L)	.
12f 12A-	(12.gg	.
*Xped	*	*
12cJ	.	.
.	24ffJk	.
!	!	!LO:DY:a
*ped	*	*
12D-L	12ffL	>
12f 12A-	12ee-	.
12B-J	12dd-J	]
*Xped	*	*
.	.	.
.	16qdd-/LL	<
.	16qee-/JJ	.
*ped	*	*
12E-L	12dd-L	.
12e 12G	12cc	.
12d-J	24r	.
*Xped	*	*
.	24bXJk)	[
=74	=74	=74
*^	*	*
*	*^	*	*
*ped	*	*	*	*
12ryy	2.ryy	12EnL	(>4cc	.
12ryy	.	12g 12B-	.	.
12ryy	.	12cJ	.	.
*Xped	*	*	*	*
.	.	.	.	.
*ped	*	*	*	*
12ryy	.	12FL	12aa-L	.
12ryy	.	12f 12A-	12gg	.
12ryy	.	12cJ	12ffJ	.
*Xped	*	*	*	*
.	.	.	.	.
*ped	*	*	*	*
12ryy	.	12D-L	12ffL	>
12ryy	.	12f 12A-	12ee-	.
12ryy	.	12B-J	12dd-J	.
*Xped	*	*	*	*
.	.	.	.	.
*ped	*	*	*	*
12ryy	4E/	12EL	28dd-LL	.
.	.	.	28ee-	.
.	.	.	28dd-J	.
6e-/	.	12e- 12G	.	.
.	.	.	14cc	]
.	.	12d-J	.	.
*Xped	*	*	*	*
.	.	.	14b-J)	.
*v	*v	*v	*	*
=;<75	=;<75	=;<75
*	*^	*
*	*	*^	*
!	!	!LO:TX:a:B:t=Lento.	!	!
2AA- 2E- 2A-	(>2c 2e- 2a- 2cc	2ryy	2ryy	.
2D- 2A-	4.a-	4f	2d-\	<
.	.	4f-X	.	.
.	8b-	.	.	[>
*	*v	*v	*v	*
=76	=76	=76
!	!LO:TX:a:t=Fin.	!
1A-;< 1E- 1AA-:	1cc; 1a- 1e- 1c):)	]
==	==	==
*tuplet	*tuplet	*tuplet
*-	*-	*-
!!title: @{OTL}; @{OPS} @{ONM} publisher: @{PPR}
!!!RDF**kern: > = above
!!!RDF**kern: < = below
!!!ENC:[Wojciech Jakubiak-Danek]
!!!END:[data edycji 2018-06-05]
!!!EED:[Mateusz Mrugas]
!!!EST: revision finished [data korekty 2018-06-10]
!!!EED2: Emilia Ziętek
!!!EST2: 2019-08-07
!!!rism-genre: Nocturne
!!!rism-key: A-flat major
!!!rism-opus: op. 32, no. 2
!!!rism-title: Nocturne in A-flat major op. 32, no. 2
!!!rism-permalink: https://opac.rism.info/search?id=1001032941&View=rism
!!!rism-773a-OPR: 1001032937
!!!rism-parent-permalink: https://opac.rism.info/search?id=1001032937&View=rism
